Obsidian/actions/24s/color-gradient.svg

<svg height="24" viewBox="0 0 24 24" width="24" xmlns="http://www.w3.org/2000/svg"><g fill="#bebebe"><path d="m5 5h14v14h-14z" opacity=".3"/><path d="m6 6v4h3.293l4.707 4.705v3.295h4v-4h-3.291l-4.709-4.707v-3.293z"/></g></svg>

<svg xmlns="http://www.w3.org/2000/svg" width="24" height="24" version="1.1" viewBox="0 0 24 24">
 <defs>
  <style id="current-color-scheme" type="text/css">
   .ColorScheme-Text { color:#bebebe; } .ColorScheme-Highlight { color:#4285f4; }
  </style>
 </defs>
 <path style="opacity:0.3;fill:currentColor" class="ColorScheme-Text" d="M 5,5 19,5 19,19 5,19 Z"/>
 <path style="fill:currentColor" class="ColorScheme-Text" d="M 6,6 6,10 9.293,10 14,14.705 14,18 18,18 18,14 14.709,14 10,9.293 10,6 6,6 Z"/>
</svg>
